src/assets/emoji/noto-emoji/1F683.svg

<svg enable-background="new 0 0 128 128" viewBox="0 0 128 128" xmlns="http://www.w3.org/2000/svg" xmlns:xlink="http://www.w3.org/1999/xlink"><rect x="4" y="101" width="119.8" height="22" fill="#8D6E63"/><rect x="4" y="101" width="119.9" height="7" fill="#424242"/><g opacity=".2"><path d="M122,103v18H6v-18H122 M124,101H4v22h120V101z" fill="#eee"/></g><g fill="#212121"><circle cx="18" cy="99" r="6"/><circle cx="34" cy="99" r="6"/><circle cx="94" cy="99" r="6"/><circle cx="110" cy="99" r="6"/></g><linearGradient id="i" x1="64.05" x2="64.05" y1="4152" y2="4223" gradientTransform="translate(0 -4124)" gradientUnits="userSpaceOnUse"><stop stop-color="#FF7043" offset="0"/><stop stop-color="#F15A2B" offset=".6132"/><stop stop-color="#E64A19" offset="1"/></linearGradient><path d="m115.9 99h-103.7c-3.3 0-6-2.7-6-6v-59c0-3.3 2.7-6 6-6h103.7c3.3 0 6 2.7 6 6v59c0 3.3-2.7 6-6 6z" fill="url(#i)"/><linearGradient id="h" x1="6.1" x2="121.9" y1="45.12" y2="45.12" gradientTransform="matrix(1 0 0 -1 0 127.97)" gradientUnits="userSpaceOnUse"><stop stop-color="#FFEB3B" offset=".0038323"/><stop stop-color="#FCC830" offset=".8197"/><stop stop-color="#FBC02D" offset="1"/></linearGradient><rect x="6.1" y="79.7" width="115.8" height="6.3" fill="url(#h)"/><defs><path id="g" d="m115.9 99h-103.7c-3.3 0-6-2.7-6-6v-59c0-3.3 2.7-6 6-6h103.7c3.3 0 6 2.7 6 6v59c0 3.3-2.7 6-6 6z"/></defs><clipPath id="f"><use xlink:href="#g"/></clipPath><rect x="3.8" y="18.8" width="120.5" height="17.2" clip-path="url(#f)" fill="#689F38"/><defs><path id="e" d="m115.9 99h-103.7c-3.3 0-6-2.7-6-6v-59c0-3.3 2.7-6 6-6h103.7c3.3 0 6 2.7 6 6v59c0 3.3-2.7 6-6 6z"/></defs><clipPath id="d"><use xlink:href="#e"/></clipPath><g clip-path="url(#d)"><path d="m21 74h-15.4c-2.2 0-4-1.8-4-4v-20.2c0-2.2 1.8-4 4-4h15.4c2.2 0 4 1.8 4 4v20.2c0 2.2-1.8 4-4 4z" fill="#4FC3F7"/></g><defs><path id="c" d="m115.9 99h-103.7c-3.3 0-6-2.7-6-6v-59c0-3.3 2.7-6 6-6h103.7c3.3 0 6 2.7 6 6v59c0 3.3-2.7 6-6 6z"/></defs><clipPath id="b"><use xlink:href="#c"/></clipPath><g clip-path="url(#b)" opacity=".2"><path d="m21 47.8c1.1 0 2 0.9 2 2v20.2c0 1.1-0.9 2-2 2h-15.4c-1.1 0-2-0.9-2-2v-20.2c0-1.1 0.9-2 2-2h15.4m0-2h-15.4c-2.2 0-4 1.8-4 4v20.2c0 2.2 1.8 4 4 4h15.4c2.2 0 4-1.8 4-4v-20.2c0-2.3-1.8-4-4-4z" fill="#424242"/></g><path d="m44.2 69.1h-9.2c-2.2 0-4-1.8-4-4v-15.3c0-2.2 1.8-4 4-4h9.1c2.2 0 4 1.8 4 4v15.3c0.1 2.2-1.6 4-3.9 4z" fill="#4FC3F7"/><g opacity=".2"><path d="m44.2 47.8c1.1 0 2 0.9 2 2v15.3c0 1.1-0.9 2-2 2h-9.2c-1.1 0-2-0.9-2-2v-15.3c0-1.1 0.9-2 2-2h9.2m0-2h-9.2c-2.2 0-4 1.8-4 4v15.3c0 2.2 1.8 4 4 4h9.1c2.2 0 4-1.8 4-4v-15.3c0.1-2.3-1.6-4-3.9-4z" fill="#424242"/></g><path d="m66.4 68.9h-9.1c-2.2 0-4-1.8-4-4v-15.4c0-2.2 1.8-4 4-4h9.1c2.2 0 4 1.8 4 4v15.3c0 2.3-1.8 4.1-4 4.1z" fill="#4FC3F7"/><g opacity=".2"><path d="m66.4 47.5c1.1 0 2 0.9 2 2v15.3c0 1.1-0.9 2-2 2h-9.1c-1.1 0-2-0.9-2-2v-15.3c0-1.1 0.9-2 2-2h9.1m0-2h-9.1c-2.2 0-4 1.8-4 4v15.3c0 2.2 1.8 4 4 4h9.1c2.2 0 4-1.8 4-4v-15.3c0-2.2-1.8-4-4-4z" fill="#424242"/></g><path d="m88.5 69.1h-9.1c-2.2 0-4-1.8-4-4v-15.3c0-2.2 1.8-4 4-4h9.1c2.2 0 4 1.8 4 4v15.3c0 2.2-1.8 4-4 4z" fill="#4FC3F7"/><g opacity=".2"><path d="m88.5 47.8c1.1 0 2 0.9 2 2v15.3c0 1.1-0.9 2-2 2h-9.1c-1.1 0-2-0.9-2-2v-15.3c0-1.1 0.9-2 2-2h9.1m0-2h-9.1c-2.2 0-4 1.8-4 4v15.3c0 2.2 1.8 4 4 4h9.1c2.2 0 4-1.8 4-4v-15.3c0-2.3-1.8-4-4-4z" fill="#424242"/></g><path d="m110.6 69h-9.1c-2.2 0-4-1.8-4-4v-15.3c0-2.2 1.8-4 4-4h9.1c2.2 0 4 1.8 4 4v15.3c0 2.2-1.8 4-4 4z" fill="#4FC3F7"/><g opacity=".2"><path d="m110.6 47.7c1.1 0 2 0.9 2 2v15.3c0 1.1-0.9 2-2 2h-9.1c-1.1 0-2-0.9-2-2v-15.3c0-1.1 0.9-2 2-2h9.1m0-2h-9.1c-2.2 0-4 1.8-4 4v15.3c0 2.2 1.8 4 4 4h9.1c2.2 0 4-1.8 4-4v-15.3c0-2.2-1.8-4-4-4z" fill="#424242"/></g><defs><path id="a" d="m115.9 99h-103.7c-3.3 0-6-2.7-6-6v-59c0-3.3 2.7-6 6-6h103.7c3.3 0 6 2.7 6 6v59c0 3.3-2.7 6-6 6z"/></defs><clipPath id="o"><use xlink:href="#a"/></clipPath><linearGradient id="n" x1="64.05" x2="64.05" y1="91.97" y2="99.97" gradientTransform="matrix(1 0 0 -1 0 127.97)" gradientUnits="userSpaceOnUse"><stop stop-color="#FFEB3B" offset=".0038323"/><stop stop-color="#FCC830" offset=".8197"/><stop stop-color="#FBC02D" offset="1"/></linearGradient><rect x="3.8" y="28" width="120.5" height="8" clip-path="url(#o)" fill="url(#n)"/><defs><path id="m" d="m115.9 99h-103.7c-3.3 0-6-2.7-6-6v-59c0-3.3 2.7-6 6-6h103.7c3.3 0 6 2.7 6 6v59c0 3.3-2.7 6-6 6z"/></defs><clipPath id="l"><use xlink:href="#m"/></clipPath><g clip-path="url(#l)"><path d="m21 74h-15.4c-2.2 0-4-1.8-4-4v-20.2c0-2.2 1.8-4 4-4h15.4c2.2 0 4 1.8 4 4v20.2c0 2.2-1.8 4-4 4z" fill="#4FC3F7"/></g><defs><path id="k" d="m115.9 99h-103.7c-3.3 0-6-2.7-6-6v-59c0-3.3 2.7-6 6-6h103.7c3.3 0 6 2.7 6 6v59c0 3.3-2.7 6-6 6z"/></defs><clipPath id="j"><use xlink:href="#k"/></clipPath><g clip-path="url(#j)" opacity=".2"><path d="m21 48.4c0.7 0 1.3 0.6 1.3 1.3v20.3c0 0.7-0.6 1.3-1.3 1.3h-15.4c-0.7 0-1.3-0.6-1.3-1.3v-20.2c0-0.7 0.6-1.3 1.3-1.3h15.4m0-2.7h-15.4c-2.2 0-4 1.8-4 4v20.2c0 2.2 1.8 4 4 4h15.4c2.2 0 4-1.8 4-4v-20.2c0-2.3-1.8-4-4-4z" fill="#616161"/></g><g opacity=".2"><path d="m115.9 31c1.7 0 3 1.3 3 3v59c0 1.7-1.3 3-3 3h-103.7c-1.6 0-3-1.3-3-3v-59c0-1.7 1.4-3 3-3h103.7m0-3h-103.7c-3.3 0-6 2.7-6 6v59c0 3.3 2.7 6 6 6h103.7c3.3 0 6-2.7 6-6v-59c0-3.3-2.7-6-6-6z" fill="#424242"/></g></svg>

<?xml version="1.0" encoding="utf-8"?>
<!-- Generator: Adobe Illustrator 24.0.3, SVG Export Plug-In . SVG Version: 6.00 Build 0)  -->
<svg version="1.1" id="Layer_1" xmlns="http://www.w3.org/2000/svg" xmlns:xlink="http://www.w3.org/1999/xlink" x="0px" y="0px"
	 viewBox="0 0 128 128" style="enable-background:new 0 0 128 128;" xml:space="preserve">
<rect x="4" y="101" style="fill:#8D6E63;" width="119.8" height="22"/>
<rect x="4" y="101" style="fill:#424242;" width="119.9" height="7"/>
<g style="opacity:0.2;">
	<path style="fill:#EEEEEE;" d="M122,103v18H6v-18H122 M124,101H4v22h120V101z"/>
</g>
<g>
	<circle style="fill:#212121;" cx="18" cy="99" r="6"/>
	<circle style="fill:#212121;" cx="34" cy="99" r="6"/>
	<circle style="fill:#212121;" cx="94" cy="99" r="6"/>
	<circle style="fill:#212121;" cx="110" cy="99" r="6"/>
</g>
<linearGradient id="SVGID_1_" gradientUnits="userSpaceOnUse" x1="64.05" y1="4866" x2="64.05" y2="4937" gradientTransform="matrix(1 0 0 1 0 -4838)">
	<stop  offset="0" style="stop-color:#FF7043"/>
	<stop  offset="0.6132" style="stop-color:#F15A2B"/>
	<stop  offset="1" style="stop-color:#E64A19"/>
</linearGradient>
<path style="fill:url(#SVGID_1_);" d="M115.9,99H12.2c-3.3,0-6-2.7-6-6V34c0-3.3,2.7-6,6-6h103.7c3.3,0,6,2.7,6,6v59
	C121.9,96.3,119.2,99,115.9,99z"/>
<linearGradient id="SVGID_2_" gradientUnits="userSpaceOnUse" x1="6.1" y1="-668.88" x2="121.9" y2="-668.88" gradientTransform="matrix(1 0 0 -1 0 -586.03)">
	<stop  offset="3.832300e-03" style="stop-color:#FFEB3B"/>
	<stop  offset="0.8197" style="stop-color:#FCC830"/>
	<stop  offset="1" style="stop-color:#FBC02D"/>
</linearGradient>
<rect x="6.1" y="79.7" style="fill:url(#SVGID_2_);" width="115.8" height="6.3"/>
<g>
	<g>
		<defs>
			<path id="SVGID_3_" d="M115.9,99H12.2c-3.3,0-6-2.7-6-6V34c0-3.3,2.7-6,6-6h103.7c3.3,0,6,2.7,6,6v59
				C121.9,96.3,119.2,99,115.9,99z"/>
		</defs>
		<clipPath id="SVGID_4_">
			<use xlink:href="#SVGID_3_"  style="overflow:visible;"/>
		</clipPath>
		<rect x="3.8" y="18.8" style="clip-path:url(#SVGID_4_);fill:#689F38;" width="120.5" height="17.2"/>
	</g>
</g>
<g>
	<g>
		<defs>
			<path id="SVGID_5_" d="M115.9,99H12.2c-3.3,0-6-2.7-6-6V34c0-3.3,2.7-6,6-6h103.7c3.3,0,6,2.7,6,6v59
				C121.9,96.3,119.2,99,115.9,99z"/>
		</defs>
		<clipPath id="SVGID_6_">
			<use xlink:href="#SVGID_5_"  style="overflow:visible;"/>
		</clipPath>
		<g style="clip-path:url(#SVGID_6_);">
			<path style="fill:#4FC3F7;" d="M21,74H5.6c-2.2,0-4-1.8-4-4V49.8c0-2.2,1.8-4,4-4H21c2.2,0,4,1.8,4,4V70C25,72.2,23.2,74,21,74z"
				/>
		</g>
	</g>
</g>
<g>
	<g>
		<defs>
			<path id="SVGID_7_" d="M115.9,99H12.2c-3.3,0-6-2.7-6-6V34c0-3.3,2.7-6,6-6h103.7c3.3,0,6,2.7,6,6v59
				C121.9,96.3,119.2,99,115.9,99z"/>
		</defs>
		<clipPath id="SVGID_8_">
			<use xlink:href="#SVGID_7_"  style="overflow:visible;"/>
		</clipPath>
		<g style="opacity:0.2;clip-path:url(#SVGID_8_);">
			<path style="fill:#424242;" d="M21,47.8c1.1,0,2,0.9,2,2V70c0,1.1-0.9,2-2,2H5.6c-1.1,0-2-0.9-2-2V49.8c0-1.1,0.9-2,2-2H21
				 M21,45.8H5.6c-2.2,0-4,1.8-4,4V70c0,2.2,1.8,4,4,4H21c2.2,0,4-1.8,4-4V49.8C25,47.5,23.2,45.8,21,45.8z"/>
		</g>
	</g>
</g>
<path style="fill:#4FC3F7;" d="M44.2,69.1H35c-2.2,0-4-1.8-4-4V49.8c0-2.2,1.8-4,4-4h9.1c2.2,0,4,1.8,4,4v15.3
	C48.2,67.3,46.5,69.1,44.2,69.1z"/>
<g style="opacity:0.2;">
	<path style="fill:#424242;" d="M44.2,47.8c1.1,0,2,0.9,2,2v15.3c0,1.1-0.9,2-2,2H35c-1.1,0-2-0.9-2-2V49.8c0-1.1,0.9-2,2-2H44.2
		 M44.2,45.8H35c-2.2,0-4,1.8-4,4v15.3c0,2.2,1.8,4,4,4h9.1c2.2,0,4-1.8,4-4V49.8C48.2,47.5,46.5,45.8,44.2,45.8z"/>
</g>
<path style="fill:#4FC3F7;" d="M66.4,68.9h-9.1c-2.2,0-4-1.8-4-4V49.5c0-2.2,1.8-4,4-4h9.1c2.2,0,4,1.8,4,4v15.3
	C70.4,67.1,68.6,68.9,66.4,68.9z"/>
<g style="opacity:0.2;">
	<path style="fill:#424242;" d="M66.4,47.5c1.1,0,2,0.9,2,2v15.3c0,1.1-0.9,2-2,2h-9.1c-1.1,0-2-0.9-2-2V49.5c0-1.1,0.9-2,2-2H66.4
		 M66.4,45.5h-9.1c-2.2,0-4,1.8-4,4v15.3c0,2.2,1.8,4,4,4h9.1c2.2,0,4-1.8,4-4V49.5C70.4,47.3,68.6,45.5,66.4,45.5z"/>
</g>
<path style="fill:#4FC3F7;" d="M88.5,69.1h-9.1c-2.2,0-4-1.8-4-4V49.8c0-2.2,1.8-4,4-4h9.1c2.2,0,4,1.8,4,4v15.3
	C92.5,67.3,90.7,69.1,88.5,69.1z"/>
<g style="opacity:0.2;">
	<path style="fill:#424242;" d="M88.5,47.8c1.1,0,2,0.9,2,2v15.3c0,1.1-0.9,2-2,2h-9.1c-1.1,0-2-0.9-2-2V49.8c0-1.1,0.9-2,2-2H88.5
		 M88.5,45.8h-9.1c-2.2,0-4,1.8-4,4v15.3c0,2.2,1.8,4,4,4h9.1c2.2,0,4-1.8,4-4V49.8C92.5,47.5,90.7,45.8,88.5,45.8z"/>
</g>
<path style="fill:#4FC3F7;" d="M110.6,69h-9.1c-2.2,0-4-1.8-4-4V49.7c0-2.2,1.8-4,4-4h9.1c2.2,0,4,1.8,4,4V65
	C114.6,67.2,112.8,69,110.6,69z"/>
<g style="opacity:0.2;">
	<path style="fill:#424242;" d="M110.6,47.7c1.1,0,2,0.9,2,2V65c0,1.1-0.9,2-2,2h-9.1c-1.1,0-2-0.9-2-2V49.7c0-1.1,0.9-2,2-2H110.6
		 M110.6,45.7h-9.1c-2.2,0-4,1.8-4,4V65c0,2.2,1.8,4,4,4h9.1c2.2,0,4-1.8,4-4V49.7C114.6,47.5,112.8,45.7,110.6,45.7z"/>
</g>
<linearGradient id="SVGID_9_" gradientUnits="userSpaceOnUse" x1="64.05" y1="91.8898" x2="64.05" y2="99.8898" gradientTransform="matrix(1 0 0 -1 0 127.8898)">
	<stop  offset="3.832300e-03" style="stop-color:#FFEB3B"/>
	<stop  offset="0.8197" style="stop-color:#FCC830"/>
	<stop  offset="1" style="stop-color:#FBC02D"/>
</linearGradient>
<path style="fill:url(#SVGID_9_);" d="M121.9,34v2H6.2v-2c0-3.3,2.7-6,6-6h103.7C119.2,28,121.9,30.7,121.9,34z"/>
<g>
	<path style="fill:#4FC3F7;" d="M25,49.8V70c0,2.2-1.8,4-4,4H6.2V45.8H21C23.2,45.8,25,47.6,25,49.8z"/>
</g>
<g style="opacity:0.2;">
	<path style="fill:#616161;" d="M21,45.8H6.2v2.7H21v-0.1c0.7,0,1.3,0.6,1.3,1.3V70c0,0.7-0.6,1.3-1.3,1.3H6.2V74H21
		c2.2,0,4-1.8,4-4V49.8C25,47.5,23.2,45.8,21,45.8z"/>
</g>
<g style="opacity:0.2;">
	<path style="fill:#424242;" d="M115.9,31c1.7,0,3,1.3,3,3v59c0,1.7-1.3,3-3,3H12.2c-1.6,0-3-1.3-3-3V34c0-1.7,1.4-3,3-3H115.9
		 M115.9,28H12.2c-3.3,0-6,2.7-6,6v59c0,3.3,2.7,6,6,6h103.7c3.3,0,6-2.7,6-6V34C121.9,30.7,119.2,28,115.9,28z"/>
</g>
</svg>
